packages/calcite-ui-icons/icons/add-link-chart-root-nodes-32.svg

<?xml version="1.0" encoding="UTF-8"?><svg id="icons" xmlns="http://www.w3.org/2000/svg" viewBox="0 0 32 32"><defs><style>.cls-1{fill:none;}</style></defs><path d="M8,24h5v1h-5v5h-1v-5H2v-1h5v-5h1v5ZM18.5,11l-2.5,2.5,2.5,2.5,2.5-2.5-2.5-2.5ZM30.20703,13.5l-11.70703,11.70703L6.79297,13.5,18.5,1.79297l11.70703,11.70703ZM18.5,23.79297l10.29297-10.29297L18.5,3.20703l-10.29297,10.29297,10.29297,10.29297Z"/><rect class="cls-1" width="32" height="32"/></svg>

<svg xmlns="http://www.w3.org/2000/svg" viewBox="0 0 32 32"><path d="M8 24h5v1H8v5H7v-5H2v-1h5v-5h1v5zm10.5-13L16 13.5l2.5 2.5 2.5-2.5-2.5-2.5zm11.707 2.5L18.5 25.207 6.793 13.5 18.5 1.793 30.207 13.5zM18.5 23.793L28.793 13.5 18.5 3.207 8.207 13.5 18.5 23.793z"/><path fill="none" d="M0 0h32v32H0z"/></svg>
